X:1
T:Title
%%score { ( 1 3 ) | ( 2 4 ) }
L:1/8
Q:1/4=100
M:2/4
K:E
V:1 treble nm="Grand Piano"
V:3 treble 
V:2 bass 
V:4 bass 
V:1
 GF EB, | EF G2 | B2 G>E | [DB]4 | GF EB, | EF G2 | F2 d>c | z2 z A | GG [EG][DF] | %9
w: B.~E.~Warren * * *|||||||||
 [DF][EG] [FA]2 | [FA][EA] [B,EA][B,EG] | [B,EG][B,FA] [EGB]2 | BG EB, | EG B2 | %14
w: |||||
 [B,DB]2 [B,DA]>[A,DF] | [G,E]4 |] %16
w: ||
V:2
 G,F, E,B,, | E,F, G,2 | [E,G,E]2 [E,B,E]>[E,G,] | F,2 z2 | G,F, E,B,, | E,F, G,2 | %6
 [F,B,D]2 [F,B,F]>[F,^A,E] | [B,,B,]4 | [E,B,E][E,B,E] [B,,B,][B,,B,] | [B,,B,][B,,B,] [B,,B,]2 | %10
 [B,,B,][B,,B,] E,E, | E,E, E,2 | CG, E,B,, | E,G, B,2 | B,,2 B,,>B,, | E,4 |] %16
V:3
 x4 | x4 | x4 | z2 A,2 | x4 | x4 | x4 | [DB]4 | x4 | x4 | x4 | x4 | x4 | x4 | x4 | x4 |] %16
V:4
 x4 | x4 | x4 | B,,4 | x4 | x4 | x4 | x4 | x4 | x4 | x4 | x4 | x4 | x4 | x4 | x4 |] %16

